X: 330
T: The Heir at Law
%R: reel
Z: 2014 John Chambers <jc:trillian.mit.edu>
B: Preston "Twenty four Country Dances for the Year 1798" p.145 #2
F: http://www.vwml.org/browse/browse-collections-dance-tune-books/browse-prestons1798# 2014-8-10
N: The 3rd dance phrase icon is obscured by the EFDSS watermark logo; "|" is visible, but ":|." is more likely.
M: C|
L: 1/8
K: A
E |\
AAce ddec | AAce d>cBc |\
AAce ddec | AAce dB A :|
|:\
Aaga fdec | Aaga f^de2 |\
Aaga fdec | AAce dBA2 :|
% - - - - - - - - - - - - - - - - - - - - - - - - -
%%begintext align
%% Right hands across .| Left hands back again :|
%% Lead down the middle up again :|. Allemande :|:
%%endtext
% - - - - - - - - - - - - - - - - - - - - - - - - -

%%sep 1 1 500
%%sep 1 1 500
